X:0
T:The Birks of Invermay
G:strathspey
M:4/4
L:1/8
Q:1/4=120
K:G
B>c|d3e     d>BA>G|A>GA>B E3G  |D>ED>B, D2G>D |B,2D>E D2G>B|
    d2ef/g/ d<BA>G|c>BAG  E2B>A|G>ED>B, D2G>A |B2A>G  G2  ||
D>C|B,3D    E>DE<G|A>GA<B E2e2 |d>ed>B  c>BA<G|c>dc>B A2d>c|
    B>de>f  g3e   |d>BA>G E2B>A|G>ED>B, D2 G>A|B2A>G  G2  |]

which is in the major mode, but the seventh only occurs in ascending lines.
Or this:

